X: 6056
T: Cape North, The
R: jig
M: 6/8
K: Ddorian
|:d2 c|A2 D DED|AGF EFG|A2 D DEF|EDC EFG|
A2 D DED|AGF E2 G|A2 c GEC|D3:|
|:DED|C2 B c2 d|cBA c3|E2 F G2 A|GEC G3|
ABc dB/c/d|ece dBG|c2 A GEC|D3:|

